public/formular-icons/greece/lower-zeta.svg

<svg style="vertical-align:-.462ex" xmlns="http://www.w3.org/2000/svg" width="1.066ex" height="2.054ex" viewBox="0 -704 471 908" xmlns:xlink="http://www.w3.org/1999/xlink"><defs><path id="a" d="M296 643q2 61 28 61 18 0 18-17 0-5-3-23t-3-31q0-10 1-15t1-7q1 1 3 1 2 2 13 4t20 2l10 1h10q77 0 77-33-4-38-85-40h-14q-34 0-52 18l-9-6q-76-52-136-160t-61-208q0-19 2-35t9-28 12-23 16-18 18-14 21-11 21-8 22-7 21-7l66-23q67-26 67-96 0-39-25-74t-64-48q-8-2-26-2-27 0-49 8-15 4-32 14t-21 15q-5 8 1 19 7 9 18 9 4 0 30-14t62-15q15 2 27 16t12 35q0 26-20 42t-52 24-67 22-67 33-51 58-21 98q0 127 77 250t172 180l9 5q-6 18-6 48Z"/></defs><g stroke="currentColor" fill="currentColor" stroke-width="0"><use data-c="1D701" xlink:href="#a" transform="scale(1 -1)"/></g></svg>

<svg style="vertical-align: -0.462ex" xmlns="http://www.w3.org/2000/svg" width="1.066ex" height="2.054ex" role="img" focusable="false" viewBox="0 -704 471 908" xmlns:xlink="http://www.w3.org/1999/xlink"><defs><path id="MJX-95-TEX-I-1D701" d="M296 643Q298 704 324 704Q342 704 342 687Q342 682 339 664T336 633Q336 623 337 618T338 611Q339 612 341 612Q343 614 354 616T374 618L384 619H394Q471 619 471 586Q467 548 386 546H372Q338 546 320 564L311 558Q235 506 175 398T114 190Q114 171 116 155T125 127T137 104T153 86T171 72T192 61T213 53T235 46T256 39L322 16Q389 -10 389 -80Q389 -119 364 -154T300 -202Q292 -204 274 -204Q247 -204 225 -196Q210 -192 193 -182T172 -167Q167 -159 173 -148Q180 -139 191 -139Q195 -139 221 -153T283 -168Q298 -166 310 -152T322 -117Q322 -91 302 -75T250 -51T183 -29T116 4T65 62T44 160Q44 287 121 410T293 590L302 595Q296 613 296 643Z"></path></defs><g stroke="currentColor" fill="currentColor" stroke-width="0" transform="scale(1,-1)"><g data-mml-node="math"><g data-mml-node="mi"><use data-c="1D701" xlink:href="#MJX-95-TEX-I-1D701"></use></g></g></g></svg>
